usr/share/icons/biglinux-icons-material/scalable/apps/clementine.svg

<?xml version="1.0" encoding="UTF-8" standalone="no"?>
<svg
   width="24"
   height="24"
   viewBox="0 0 6.349875 6.349875"
   version="1.1"
   id="svg1705"
   sodipodi:docname="clementine.svg"
   inkscape:version="1.2.2 (b0a8486541, 2022-12-01)"
   inkscape:export-filename="../../../../../../../../../Imagens/Big Icons/clementine.pdf"
   inkscape:export-xdpi="96"
   inkscape:export-ydpi="96"
   xml:space="preserve"
   xmlns:inkscape="http://www.inkscape.org/namespaces/inkscape"
   xmlns:sodipodi="http://sodipodi.sourceforge.net/DTD/sodipodi-0.dtd"
   xmlns="http://www.w3.org/2000/svg"
   xmlns:svg="http://www.w3.org/2000/svg"><defs
     id="defs1709"><radialGradient
       id="paint0_radial_0_1"
       cx="0"
       cy="0"
       r="1"
       gradientUnits="userSpaceOnUse"
       gradientTransform="matrix(0,2.9103593,-2.9103593,0,3.1749362,0.26458207)"><stop
         stop-color="#6EBBF7"
         id="stop322"
         offset="0"
         style="stop-color:#ffcca7;stop-opacity:1;" /><stop
         offset="1"
         stop-color="#2196F3"
         id="stop324"
         style="stop-color:#ff8830;stop-opacity:1;" /></radialGradient><radialGradient
       fx="0"
       fy="0"
       cx="0"
       cy="0"
       r="1"
       gradientUnits="userSpaceOnUse"
       gradientTransform="matrix(0,8.25,-8.25,0,8.999996,0.750011)"
       spreadMethod="pad"
       id="radialGradient5326"><stop
         style="stop-opacity:1;stop-color:#ffcca7"
         offset="0"
         id="stop5322" /><stop
         style="stop-opacity:1;stop-color:#ff8830"
         offset="1"
         id="stop5324" /></radialGradient><radialGradient
       fx="0"
       fy="0"
       cx="0"
       cy="0"
       r="1"
       gradientUnits="userSpaceOnUse"
       gradientTransform="matrix(0,8.25,-8.25,0,8.999996,0.750011)"
       spreadMethod="pad"
       id="radialGradient5326-3"><stop
         style="stop-opacity:1;stop-color:#ffcca7"
         offset="0"
         id="stop5322-6" /><stop
         style="stop-opacity:1;stop-color:#ff8830"
         offset="1"
         id="stop5324-7" /></radialGradient></defs><sodipodi:namedview
     id="namedview1707"
     pagecolor="#ffffff"
     bordercolor="#000000"
     borderopacity="0.25"
     inkscape:showpageshadow="2"
     inkscape:pageopacity="0.0"
     inkscape:pagecheckerboard="0"
     inkscape:deskcolor="#d1d1d1"
     showgrid="false"
     inkscape:zoom="8"
     inkscape:cx="21.125"
     inkscape:cy="40.1875"
     inkscape:window-width="2560"
     inkscape:window-height="1000"
     inkscape:window-x="1680"
     inkscape:window-y="0"
     inkscape:window-maximized="1"
     inkscape:current-layer="svg1705" /><g
     id="g5312"
     transform="matrix(0.35277082,0,0,0.35277082,-1.196e-4,-9.2306512e-6)"><g
       id="g5314"><g
         id="g5320"><path
           d="m 7.195,0.836 c 0.09,0 0.176,-0.012 0.258,-0.035 1.078,-0.071 2.156,-0.067 3.231,0.008 0.976,0.078 1.921,0.289 2.836,0.636 1.519,0.625 2.558,1.711 3.121,3.254 0.316,0.93 0.507,1.887 0.566,2.867 0.078,1.235 0.051,2.465 -0.086,3.696 -0.105,0.863 -0.328,1.691 -0.672,2.488 -0.637,1.383 -1.672,2.336 -3.101,2.859 C 12.191,17 11,17.207 9.773,17.227 8.398,17.301 7.035,17.195 5.684,16.918 3.203,16.367 1.668,14.852 1.09,12.375 0.844,11.262 0.73,10.133 0.754,8.992 0.727,7.781 0.855,6.582 1.141,5.402 1.75,3.09 3.219,1.656 5.547,1.102 6.09,0.969 6.641,0.879 7.195,0.836 Z"
           style="fill:url(#radialGradient5326-3);fill-rule:evenodd;stroke:none"
           id="path5328" /></g></g></g><path
     id="path2701"
     style="fill:#f9f9f9;fill-opacity:1;stroke-width:0.39154"
     d="m 2.0453129,1.3363262 a 2.9324004,2.9676555 0 0 0 -1.622608,0.496084 c -0.00709,0.024249 -0.014143,0.049073 -0.02067,0.073896 C 0.3556669,2.0980061 0.3211089,2.2907956 0.2981673,2.4850708 0.4588482,2.3169074 0.611066,2.1843317 0.7647963,2.0814858 1.2256017,3.3539887 1.2501194,3.3588302 0.9079372,1.9967378 1.245557,1.8080192 1.5961218,1.7464316 2.0453131,1.7435283 c 0.039403,-4.148e-4 0.076249,0.00247 0.1152362,0.00413 C 2.1551593,2.4569087 2.0454588,3.9189601 1.6551637,4.4523496 1.0910814,2.9824175 1.1595866,3.2446108 1.5399276,4.4967906 a 0.4429708,0.44836277 0 0 0 -0.07958,0.055809 L 1.2856847,4.4197937 1.3730157,4.6740368 c -0.2949575,0.044947 -0.5885079,-0.00416 -0.8815826,0.04134 0.037505,0.097319 0.080128,0.1892514 0.128155,0.2759467 0.2562278,-0.1119579 0.4763531,-0.27212 0.7575616,-0.1116189 0.00581,0.0282 0.020011,0.052946 0.032039,0.076996 L 0.7663465,5.218695 c 0.017897,0.023807 0.036386,0.046974 0.055293,0.069762 C 1.0409204,5.205085 1.260789,5.1487308 1.4649984,5.0373145 a 0.27789367,0.27789367 0 0 0 0.0956,0.052709 l -0.3844651,0.525539 c 0.028639,0.020215 0.057819,0.040099 0.087848,0.05891 0.1128973,-0.1820136 0.203864,-0.3774617 0.3798143,-0.5689463 0.030278,0.0029 0.064894,0.0073 0.099734,0.0031 a 2.9875643,3.023649 0 0 0 0.014469,0.7927009 c 0.079287,0.025582 0.1618129,0.048084 0.2475253,0.067178 0.023231,0.00478 0.046507,0.00947 0.069762,0.013952 C 1.9709882,5.6893435 1.8469772,5.4000903 1.8628999,5.0843384 1.9761311,5.1278884 2.0354948,5.1851255 2.1615838,5.2734704 2.1047608,5.1876104 2.0354486,5.131718 1.9869209,5.0238782 a 0.26545067,0.2687688 0 0 0 0.026871,-0.05581 c 0.5798432,0.2231438 1.1224197,0.285933 1.710973,0.6438757 L 4.0467028,5.8527513 A 1.5280004,1.5462501 0 0 1 3.8937425,6.0460236 C 4.0926896,6.0212746 4.2889963,5.9822886 4.4828423,5.9287204 a 2.9075144,2.94194 0 0 0 0.00517,-0.0031 2.904611,2.9394514 0 0 0 0.494017,-1.6344933 c 0,-1.6225655 -1.3090695,-2.9548003 -2.9361971,-2.9548003 z M 2.5274445,1.7915866 C 3.49779,1.9846172 4.3441918,2.7554125 4.5283166,3.6586194 l -0.043924,0.056843 C 4.4026836,3.8581422 3.6367949,4.1057335 3.358902,4.1944934 2.8280012,4.3093833 2.4481946,4.5819982 1.9388616,4.6006622 A 0.3807558,0.385733 0 0 0 1.8267259,4.4962779 C 2.1369711,3.9388324 2.0355317,2.4489912 2.5274445,1.7915866 Z m 1.925426,2.1171418 h 5.168e-4 L 4.5681067,4.020864 c 0,0.09083 -0.00926,0.1790146 -0.023771,0.2702625 C 4.4688481,4.773085 4.3731151,5.2494574 4.1748568,5.639338 L 3.7526686,5.4992977 C 3.2715398,5.2620509 2.5507295,5.1082062 2.0380784,4.7660235 2.7730442,4.33923 3.6461501,4.1671281 4.4528705,3.9087284 Z M 2.57912,5.9902141 c 0.00817,0.024091 0.018268,0.046688 0.029455,0.068728 0.012567,0.00121 0.02515,0.00249 0.037723,0.00362 C 2.623846,6.0392201 2.601403,6.0152111 2.57912,5.9902161 Z" /></svg>

<svg xmlns="http://www.w3.org/2000/svg" xml:space="preserve" width="24" height="24" viewBox="0 0 6.35 6.35"><defs><radialGradient id="a" cx="0" cy="0" r="1" fx="0" fy="0" gradientTransform="matrix(0 8.25 -8.25 0 9 .75)" gradientUnits="userSpaceOnUse" spreadMethod="pad"><stop offset="0" style="stop-opacity:1;stop-color:#ffcca7"/><stop offset="1" style="stop-opacity:1;stop-color:#ff8830"/></radialGradient></defs><path d="M7.195.836c.09 0 .176-.012.258-.035a23.86 23.86 0 0 1 3.231.008 10.26 10.26 0 0 1 2.836.636c1.519.625 2.558 1.711 3.121 3.254.316.93.507 1.887.566 2.867a21.227 21.227 0 0 1-.086 3.696 8.976 8.976 0 0 1-.672 2.488c-.637 1.383-1.672 2.336-3.101 2.859a11.693 11.693 0 0 1-3.575.618 15.998 15.998 0 0 1-4.089-.309c-2.481-.551-4.016-2.066-4.594-4.543a14.244 14.244 0 0 1-.336-3.383c-.027-1.211.101-2.41.387-3.59.609-2.312 2.078-3.746 4.406-4.3A10.27 10.27 0 0 1 7.195.836Z" style="fill:url(#a);fill-rule:evenodd;stroke:none" transform="scale(.35277)"/><path d="M2.045 1.336a2.932 2.968 0 0 0-1.622.496l-.021.074c-.046.192-.08.385-.104.58.16-.17.313-.302.467-.405.46 1.273.485 1.278.143-.084.338-.189.688-.25 1.137-.253.04 0 .077.002.116.004-.006.709-.116 2.171-.506 2.704-.564-1.47-.495-1.207-.115.045a.443.448 0 0 0-.08.056l-.174-.133.087.254c-.295.045-.588-.004-.882.041.038.098.08.19.129.276.256-.112.476-.272.757-.111.006.028.02.053.032.077l-.643.262.056.07c.219-.084.439-.14.643-.252a.278.278 0 0 0 .096.053l-.385.526c.029.02.058.04.088.058.113-.182.204-.377.38-.568.03.002.065.007.1.003a2.988 3.024 0 0 0 .014.792 2.761 2.761 0 0 0 .317.081c-.104-.293-.228-.582-.212-.898.113.044.172.101.299.19-.057-.086-.127-.142-.175-.25a.265.269 0 0 0 .027-.056c.58.223 1.122.286 1.71.644l.323.24a1.528 1.546 0 0 1-.153.194c.199-.025.395-.064.589-.117a2.908 2.942 0 0 0 .005-.003 2.905 2.94 0 0 0 .494-1.635c0-1.622-1.309-2.955-2.936-2.955zm.482.456c.97.193 1.817.963 2.001 1.867l-.044.056c-.081.143-.847.39-1.125.48-.531.114-.91.387-1.42.406a.38.386 0 0 0-.112-.105c.31-.557.209-2.047.7-2.704Zm1.926 2.117.115.112c0 .09-.01.179-.024.27-.075.482-.17.958-.37 1.348l-.421-.14c-.481-.237-1.202-.39-1.715-.733.735-.427 1.608-.599 2.415-.857ZM2.579 5.99a.521.521 0 0 0 .03.069l.037.004a2.602 2.602 0 0 1-.067-.073Z" style="fill:#f9f9f9;fill-opacity:1;stroke-width:.39154"/></svg>
